X:213
T:Captain O'Kane
T:The Wounded Hussar
S:On Do Thaobh - Niahm Ni Charra
R:jig
M:6/8
L:1/8
K:Emin
E/2D/2 | B,EF G2 F/2E/2 | F/2G/2A/2G/2F/2E/2 DEF | GBG B/2A/2G/2F/2E/2D/2 | B,EE E2 E/2D/2 |
B,EF G2 F/2E/2 | F/2G/2A/2G/2F/2E/2 DEF | GBG B/2A/2G/2F/2E/2D/2 | B,EE E2 E/2F/2|
GBB B2 A/2G/2 | FAA A2 d/2c/2 | Be3/2^d/2 efg | Be^d e2 e/2f/2 |
gfe dcB | A/2d3/2A D2 E/2F/2 | GBG B/2A/2G/2F/2E/2D/2 | B,ED E2 ||
